Sources/FrostedUI/Resources/Icons.xcassets/volumeLow24.imageset/volume-low-24.svg

<svg width="24" height="24" viewBox="0 0 24 24" fill="none" xmlns="http://www.w3.org/2000/svg" data-fui-icon="true">
  <path
    d="M10.3945 3.72388C11.463 2.79833 13.1248 3.55733 13.125 4.97095V19.0295C13.1246 20.4429 11.4629 21.2019 10.3945 20.2766L7.10449 17.425C6.69541 17.0705 6.17219 16.8752 5.63086 16.8752H4.125C2.88244 16.8752 1.87513 15.8678 1.875 14.6252V9.37524C1.875 8.1326 2.88236 7.12524 4.125 7.12524H5.63086C6.17214 7.12524 6.69543 6.92991 7.10449 6.57544L10.3945 3.72388ZM11.625 4.97095C11.6248 4.84267 11.474 4.77381 11.377 4.85767L8.08691 7.70923C7.40514 8.30002 6.533 8.62524 5.63086 8.62524H4.125C3.71079 8.62524 3.375 8.96103 3.375 9.37524V14.6252C3.37513 15.0393 3.71087 15.3752 4.125 15.3752H5.63086C6.53305 15.3752 7.40513 15.7004 8.08691 16.2913L11.377 19.1428C11.474 19.2265 11.6246 19.1576 11.625 19.0295V4.97095ZM15.9414 8.50024C16.2176 8.19167 16.6913 8.16551 17 8.44165L16.5918 8.89771C16.9748 8.46967 16.9992 8.4431 17.001 8.44165V8.44263L17.002 8.4436C17.0027 8.44423 17.0041 8.44482 17.0049 8.44556C17.0068 8.44736 17.0092 8.45011 17.0117 8.45239C17.0167 8.457 17.0233 8.46233 17.0303 8.46899C17.0444 8.48251 17.0625 8.50078 17.084 8.52271C17.1271 8.56672 17.1843 8.62806 17.25 8.7063C17.3814 8.86268 17.5504 9.08876 17.7168 9.38501C18.0513 9.98068 18.375 10.8565 18.375 12.0002C18.375 13.144 18.0513 14.0198 17.7168 14.6155C17.5504 14.9117 17.3814 15.1378 17.25 15.2942C17.1842 15.3724 17.1271 15.4338 17.084 15.4778C17.0625 15.4997 17.0444 15.518 17.0303 15.5315C17.0233 15.5382 17.0167 15.5435 17.0117 15.5481C17.0092 15.5504 17.0068 15.5532 17.0049 15.5549C17.004 15.5557 17.0027 15.5562 17.002 15.5569L17.001 15.5579V15.5588C17.0005 15.5589 16.9904 15.5484 16.5 15.0002L17 15.5588C16.6914 15.8348 16.2176 15.8086 15.9414 15.5002C15.6655 15.1918 15.6911 14.7179 15.999 14.4417L16.0127 14.428C16.0311 14.4091 16.0622 14.3762 16.1016 14.3293C16.181 14.2348 16.2935 14.0844 16.4082 13.8801C16.6361 13.4742 16.875 12.8496 16.875 12.0002C16.875 11.1508 16.6361 10.5263 16.4082 10.1204C16.2935 9.91615 16.181 9.76574 16.1016 9.67114C16.0622 9.62433 16.0312 9.59138 16.0127 9.57251L15.998 9.55786H15.999L15.9453 9.50513C15.6892 9.22438 15.6826 8.78963 15.9414 8.50024Z"
    fill="currentColor"
  />
</svg>

<svg xmlns="http://www.w3.org/2000/svg" width="24" height="24" fill="none" data-fui-icon="true" viewBox="0 0 24 24"><path fill="currentColor" d="M10.395 3.724c1.068-.926 2.73-.167 2.73 1.247v14.058c0 1.414-1.662 2.173-2.73 1.248l-3.29-2.852a2.25 2.25 0 0 0-1.474-.55H4.125a2.25 2.25 0 0 1-2.25-2.25v-5.25a2.25 2.25 0 0 1 2.25-2.25h1.506a2.25 2.25 0 0 0 1.473-.55zm1.23 1.247a.15.15 0 0 0-.248-.113l-3.29 2.851a3.75 3.75 0 0 1-2.456.916H4.125a.75.75 0 0 0-.75.75v5.25c0 .414.336.75.75.75h1.506a3.75 3.75 0 0 1 2.456.916l3.29 2.852a.15.15 0 0 0 .248-.114zm4.316 3.53A.75.75 0 0 1 17 8.44l-.408.457.409-.456.001.002q0 0 .003.002l.007.006.018.017.054.054q.066.066.166.183c.131.157.3.383.467.679.334.596.658 1.472.658 2.615s-.324 2.02-.658 2.616a4.4 4.4 0 0 1-.467.678 3 3 0 0 1-.22.237l-.018.017-.007.007-.003.002h-.001v.002L16.5 15l.5.559a.75.75 0 0 1-1.001-1.117l.014-.014q.029-.029.089-.099c.079-.094.192-.245.306-.449.228-.406.467-1.03.467-1.88s-.239-1.474-.467-1.88a3 3 0 0 0-.306-.449q-.06-.07-.09-.098l-.014-.015h.001l-.054-.053a.75.75 0 0 1-.004-1.005"/></svg>
